package/converter/svg/thin/gem.svg

<svg xmlns="http://www.w3.org/2000/svg" viewBox="0 0 512 512"><!-- Font Awesome Pro 6.0.0-alpha2 by @fontawesome - https://fontawesome.com License - https://fontawesome.com/license (Commercial License) --><path d="M510.4 195.203L390.403 35.203C388.872 33.188 386.528 32 383.997 32H128.003C125.472 32 123.128 33.188 121.597 35.203L1.6 195.203C-0.713 198.266 -0.494 202.547 2.1 205.391L250.094 477.391C251.594 479.047 253.75 480 256 480S260.406 479.047 261.906 477.391L509.9 205.391C512.494 202.547 512.713 198.266 510.4 195.203ZM383.796 53.064L487.995 192H272.65L383.796 53.064ZM256 187.188L144.653 48H367.347L256 187.188ZM128.204 53.064L239.35 192H24.005L128.204 53.064ZM256 460.125L26.13 208H485.87L256 460.125Z"/></svg>

<svg xmlns="http://www.w3.org/2000/svg" viewBox="0 0 512 512"><!--! Font Awesome Pro 6.6.0 by @fontawesome - https://fontawesome.com License - https://fontawesome.com/license (Commercial License) Copyright 2024 Fonticons, Inc. --><path d="M128 32c-2.5 0-4.9 1.2-6.4 3.2l-120 160c-2.3 3.1-2.1 7.4 .5 10.2l248 272c1.5 1.7 3.7 2.6 5.9 2.6s4.4-.9 5.9-2.6l248-272c2.6-2.8 2.8-7.1 .5-10.2l-120-160c-1.5-2-3.9-3.2-6.4-3.2L128 32zm.2 21.1L239.4 192 24 192 128.2 53.1zM26.1 208L256 208l229.9 0L256 460.1 26.1 208zM488 192l-215.4 0L383.8 53.1 488 192zM367.4 48L256 187.2 144.6 48l222.7 0z"/></svg>
